src/assets/truck-vector.svg

<svg width="86" height="66" viewBox="0 0 86 66" fill="none" xmlns="http://www.w3.org/2000/svg">
<path d="M83.875 56.375H72.875C72.5103 56.375 72.1606 56.2301 71.9027 55.9723C71.6449 55.7144 71.5 55.3647 71.5 55C71.5027 53.6167 71.1575 52.255 70.4963 51.04C70.3733 50.8831 70.2859 50.7012 70.2402 50.5072C70.1945 50.3131 70.1916 50.1114 70.2316 49.9161C70.2716 49.7208 70.3536 49.5365 70.4719 49.376C70.5902 49.2155 70.742 49.0827 70.9168 48.9867C71.0915 48.8908 71.2851 48.834 71.484 48.8202C71.6829 48.8065 71.8824 48.8362 72.0687 48.9073C72.255 48.9783 72.4236 49.0891 72.5628 49.2318C72.702 49.3745 72.8086 49.5458 72.875 49.7337C73.5459 50.9384 73.9844 52.2584 74.1675 53.625H82.5V33.33L74.5525 17.4075C74.2095 16.7205 73.6816 16.1428 73.0281 15.7396C72.3747 15.3363 71.6216 15.1235 70.8537 15.125H49.5V53.625H52.3325C52.5599 51.8479 53.218 50.1532 54.2495 48.6884C55.281 47.2235 56.6546 46.0327 58.2511 45.2196C59.8475 44.4065 61.6184 43.9956 63.4098 44.0227C65.2012 44.0497 66.9589 44.514 68.53 45.375C68.8509 45.5573 69.0862 45.8597 69.1842 46.2155C69.2822 46.5714 69.2348 46.9516 69.0525 47.2725C68.8702 47.5934 68.5678 47.8287 68.212 47.9267C67.8561 48.0247 67.4759 47.9773 67.155 47.795C65.9028 47.1221 64.4979 46.7841 63.0766 46.814C61.6554 46.8438 60.2659 47.2404 59.043 47.9653C57.8201 48.6902 56.8053 49.7187 56.0969 50.9513C55.3886 52.1838 55.0107 53.5785 55 55C55 55.3647 54.8551 55.7144 54.5973 55.9723C54.3394 56.2301 53.9897 56.375 53.625 56.375H48.125C47.7603 56.375 47.4106 56.2301 47.1527 55.9723C46.8949 55.7144 46.75 55.3647 46.75 55V13.75C46.75 13.3853 46.8949 13.0356 47.1527 12.7777C47.4106 12.5199 47.7603 12.375 48.125 12.375H70.8537C72.1295 12.375 73.38 12.73 74.4654 13.4002C75.5509 14.0705 76.4285 15.0295 77 16.17L85.0987 32.3812C85.1969 32.5728 85.2487 32.7848 85.25 33V55C85.25 55.3647 85.1051 55.7144 84.8473 55.9723C84.5894 56.2301 84.2397 56.375 83.875 56.375Z" fill="#707070"/>
<path d="M63.2503 65.9999C61.5696 66.0068 59.9097 65.6285 58.398 64.894C56.8862 64.1595 55.5629 63.0884 54.5296 61.7629C53.4963 60.4374 52.7805 58.8927 52.4371 57.2475C52.0937 55.6022 52.1319 53.9002 52.5487 52.272C52.9655 50.6438 53.7499 49.1328 54.8416 47.8549C55.9333 46.577 57.3033 45.5663 58.8464 44.9004C60.3896 44.2344 62.0648 43.9309 63.7435 44.0132C65.4221 44.0954 67.0596 44.5613 68.5303 45.3749C68.8512 45.5572 69.0865 45.8596 69.1845 46.2154C69.2825 46.5713 69.2351 46.9515 69.0528 47.2724C68.8704 47.5933 68.5681 47.8287 68.2122 47.9266C67.8564 48.0246 67.4762 47.9772 67.1553 47.7949C65.4134 46.8436 63.387 46.5522 61.4477 46.9739C59.5084 47.3957 57.7861 48.5024 56.5967 50.0912C55.4072 51.68 54.8304 53.6443 54.972 55.6239C55.1135 57.6035 55.9639 59.4657 57.3673 60.8691C58.7707 62.2725 60.6329 63.1229 62.6125 63.2645C64.5922 63.406 66.5565 62.8292 68.1452 61.6398C69.734 60.4503 70.8407 58.728 71.2625 56.7887C71.6843 54.8494 71.3928 52.823 70.4415 51.0812C70.2628 50.7584 70.2197 50.3779 70.3215 50.0234C70.4234 49.6688 70.6619 49.3692 70.9846 49.1905C71.3074 49.0118 71.6879 48.9687 72.0424 49.0705C72.397 49.1724 72.6966 49.4109 72.8753 49.7337C73.7875 51.4065 74.2495 53.2877 74.2161 55.1928C74.1827 57.098 73.655 58.9618 72.6847 60.6016C71.7143 62.2415 70.3347 63.6012 68.6808 64.5475C67.027 65.4938 65.1557 65.9943 63.2503 65.9999Z" fill="#707070"/>
<path d="M63.25 60.5C62.1622 60.5 61.0988 60.1774 60.1944 59.5731C59.2899 58.9687 58.5849 58.1098 58.1687 57.1048C57.7524 56.0998 57.6435 54.9939 57.8557 53.927C58.0679 52.8601 58.5917 51.8801 59.3609 51.1109C60.1301 50.3417 61.1101 49.8179 62.177 49.6057C63.2439 49.3935 64.3498 49.5024 65.3548 49.9187C66.3598 50.3349 67.2187 51.0399 67.8231 51.9444C68.4274 52.8488 68.75 53.9122 68.75 55C68.75 56.4587 68.1705 57.8576 67.1391 58.8891C66.1076 59.9205 64.7087 60.5 63.25 60.5ZM63.25 52.25C62.7061 52.25 62.1744 52.4113 61.7222 52.7135C61.27 53.0156 60.9175 53.4451 60.7093 53.9476C60.5012 54.4501 60.4467 55.0031 60.5528 55.5365C60.659 56.07 60.9209 56.56 61.3055 56.9446C61.6901 57.3291 62.1801 57.5911 62.7135 57.6972C63.247 57.8033 63.7999 57.7488 64.3024 57.5407C64.8049 57.3325 65.2344 56.9801 65.5365 56.5278C65.8387 56.0756 66 55.5439 66 55C66 54.2707 65.7103 53.5712 65.1946 53.0555C64.6788 52.5397 63.9794 52.25 63.25 52.25ZM17.875 66C15.6994 66 13.5727 65.3549 11.7637 64.1462C9.95479 62.9375 8.54489 61.2195 7.71233 59.2095C6.87977 57.1995 6.66193 54.9878 7.08637 52.854C7.5108 50.7202 8.55845 48.7602 10.0968 47.2218C11.6352 45.6835 13.5952 44.6358 15.729 44.2114C17.8628 43.7869 20.0745 44.0048 22.0845 44.8373C24.0945 45.6699 25.8125 47.0798 27.0212 48.8887C28.2299 50.6977 28.875 52.8244 28.875 55C28.875 57.9174 27.7161 60.7153 25.6532 62.7782C23.5903 64.8411 20.7924 66 17.875 66ZM17.875 46.75C16.2433 46.75 14.6483 47.2339 13.2915 48.1404C11.9348 49.0469 10.8774 50.3354 10.253 51.8429C9.62858 53.3504 9.4652 55.0092 9.78353 56.6095C10.1019 58.2098 10.8876 59.6799 12.0414 60.8336C13.1952 61.9874 14.6652 62.7732 16.2655 63.0915C17.8659 63.4098 19.5247 63.2464 21.0321 62.622C22.5396 61.9976 23.8281 60.9402 24.7346 59.5835C25.6412 58.2268 26.125 56.6317 26.125 55C26.125 52.812 25.2558 50.7135 23.7086 49.1664C22.1615 47.6192 20.063 46.75 17.875 46.75Z" fill="#707070"/>
<path d="M17.875 60.5C16.7872 60.5 15.7238 60.1774 14.8194 59.5731C13.9149 58.9687 13.2099 58.1098 12.7937 57.1048C12.3774 56.0998 12.2685 54.9939 12.4807 53.927C12.6929 52.8601 13.2167 51.8801 13.9859 51.1109C14.7551 50.3417 15.7351 49.8179 16.802 49.6057C17.8689 49.3935 18.9748 49.5024 19.9798 49.9187C20.9848 50.3349 21.8437 51.0399 22.4481 51.9444C23.0524 52.8488 23.375 53.9122 23.375 55C23.375 56.4587 22.7955 57.8576 21.7641 58.8891C20.7326 59.9205 19.3337 60.5 17.875 60.5ZM17.875 52.25C17.3311 52.25 16.7994 52.4113 16.3472 52.7135C15.8949 53.0156 15.5425 53.4451 15.3343 53.9476C15.1262 54.4501 15.0717 55.0031 15.1778 55.5365C15.284 56.0699 15.5459 56.56 15.9305 56.9445C16.3151 57.3291 16.8051 57.5911 17.3385 57.6972C17.872 57.8033 18.4249 57.7488 18.9274 57.5407C19.4299 57.3325 19.8594 56.9801 20.1615 56.5278C20.4637 56.0756 20.625 55.5439 20.625 55C20.625 54.2707 20.3353 53.5712 19.8195 53.0555C19.3038 52.5397 18.6043 52.25 17.875 52.25ZM83.875 34.375H56.375C56.0103 34.375 55.6606 34.2301 55.4027 33.9723C55.1449 33.7144 55 33.3647 55 33V19.25C55 18.8853 55.1449 18.5356 55.4027 18.2777C55.6606 18.0199 56.0103 17.875 56.375 17.875H60.5C60.8647 17.875 61.2144 18.0199 61.4723 18.2777C61.7301 18.5356 61.875 18.8853 61.875 19.25C61.875 19.6147 61.7301 19.9644 61.4723 20.2223C61.2144 20.4801 60.8647 20.625 60.5 20.625H57.75V31.625H81.6475L76.1475 20.625H66C65.6353 20.625 65.2856 20.4801 65.0277 20.2223C64.7699 19.9644 64.625 19.6147 64.625 19.25C64.625 18.8853 64.7699 18.5356 65.0277 18.2777C65.2856 18.0199 65.6353 17.875 66 17.875H77C77.2539 17.8758 77.5027 17.9468 77.7187 18.0803C77.9347 18.2138 78.1095 18.4045 78.2237 18.6312L85.0987 32.3812C85.2042 32.5906 85.2544 32.8234 85.2446 33.0576C85.2348 33.2917 85.1653 33.5195 85.0427 33.7193C84.9201 33.919 84.7484 34.0841 84.5441 34.1989C84.3397 34.3137 84.1094 34.3743 83.875 34.375ZM83.875 49.5H82.5C81.0413 49.5 79.6424 48.9205 78.6109 47.8891C77.5795 46.8576 77 45.4587 77 44C77 42.5413 77.5795 41.1424 78.6109 40.1109C79.6424 39.0795 81.0413 38.5 82.5 38.5H83.875C84.2397 38.5 84.5894 38.6449 84.8473 38.9027C85.1051 39.1606 85.25 39.5103 85.25 39.875V48.125C85.25 48.4897 85.1051 48.8394 84.8473 49.0973C84.5894 49.3551 84.2397 49.5 83.875 49.5ZM82.5 41.25C81.7707 41.25 81.0712 41.5397 80.5555 42.0555C80.0397 42.5712 79.75 43.2707 79.75 44C79.75 44.7293 80.0397 45.4288 80.5555 45.9445C81.0712 46.4603 81.7707 46.75 82.5 46.75V41.25ZM48.125 56.375H42.625C42.2603 56.375 41.9106 56.2301 41.6527 55.9723C41.3949 55.7144 41.25 55.3647 41.25 55C41.25 54.6353 41.3949 54.2856 41.6527 54.0277C41.9106 53.7699 42.2603 53.625 42.625 53.625H46.75V41.25H15.125C14.7603 41.25 14.4106 41.1051 14.1527 40.8473C13.8949 40.5894 13.75 40.2397 13.75 39.875C13.75 39.5103 13.8949 39.1606 14.1527 38.9027C14.4106 38.6449 14.7603 38.5 15.125 38.5H48.125C48.4897 38.5 48.8394 38.6449 49.0973 38.9027C49.3551 39.1606 49.5 39.5103 49.5 39.875V55C49.5 55.3647 49.3551 55.7144 49.0973 55.9723C48.8394 56.2301 48.4897 56.375 48.125 56.375Z" fill="#707070"/>
<path d="M30.25 56.375H27.5C27.1353 56.375 26.7856 56.2301 26.5277 55.9723C26.2699 55.7144 26.125 55.3647 26.125 55C26.125 52.812 25.2558 50.7135 23.7086 49.1664C22.1615 47.6192 20.063 46.75 17.875 46.75C15.687 46.75 13.5885 47.6192 12.0414 49.1664C10.4942 50.7135 9.625 52.812 9.625 55C9.625 55.3647 9.48013 55.7144 9.22227 55.9723C8.96441 56.2301 8.61467 56.375 8.25 56.375H1.375C1.01033 56.375 0.660591 56.2301 0.402728 55.9723C0.144866 55.7144 0 55.3647 0 55V39.875C0 39.5103 0.144866 39.1606 0.402728 38.9027C0.660591 38.6449 1.01033 38.5 1.375 38.5H9.625C9.98967 38.5 10.3394 38.6449 10.5973 38.9027C10.8551 39.1606 11 39.5103 11 39.875C11 40.2397 10.8551 40.5894 10.5973 40.8473C10.3394 41.1051 9.98967 41.25 9.625 41.25H2.75V53.625H6.9575C7.28567 50.9606 8.57682 48.5082 10.5877 46.7298C12.5986 44.9514 15.1905 43.9697 17.875 43.9697C20.5595 43.9697 23.1514 44.9514 25.1623 46.7298C27.1732 48.5082 28.4643 50.9606 28.7925 53.625H30.25C30.6147 53.625 30.9644 53.7699 31.2223 54.0277C31.4801 54.2856 31.625 54.6353 31.625 55C31.625 55.3647 31.4801 55.7144 31.2223 55.9723C30.9644 56.2301 30.6147 56.375 30.25 56.375ZM37.125 56.375H35.75C35.3853 56.375 35.0356 56.2301 34.7777 55.9723C34.5199 55.7144 34.375 55.3647 34.375 55C34.375 54.6353 34.5199 54.2856 34.7777 54.0277C35.0356 53.7699 35.3853 53.625 35.75 53.625H37.125C37.4897 53.625 37.8394 53.7699 38.0973 54.0277C38.3551 54.2856 38.5 54.6353 38.5 55C38.5 55.3647 38.3551 55.7144 38.0973 55.9723C37.8394 56.2301 37.4897 56.375 37.125 56.375ZM48.125 41.25H26.125C25.7603 41.25 25.4106 41.1051 25.1527 40.8473C24.8949 40.5894 24.75 40.2397 24.75 39.875V20.625C24.75 20.2603 24.8949 19.9106 25.1527 19.6527C25.4106 19.3949 25.7603 19.25 26.125 19.25H48.125C48.4897 19.25 48.8394 19.3949 49.0973 19.6527C49.3551 19.9106 49.5 20.2603 49.5 20.625V39.875C49.5 40.2397 49.3551 40.5894 49.0973 40.8473C48.8394 41.1051 48.4897 41.25 48.125 41.25ZM27.5 38.5H46.75V22H27.5V38.5Z" fill="#707070"/>
<path d="M48.125 22H26.125C25.7603 22 25.4106 21.8551 25.1527 21.5973C24.8949 21.3394 24.75 20.9897 24.75 20.625V13.75C24.75 13.3853 24.8949 13.0356 25.1527 12.7777C25.4106 12.5199 25.7603 12.375 26.125 12.375C26.4897 12.375 26.8394 12.5199 27.0973 12.7777C27.3551 13.0356 27.5 13.3853 27.5 13.75V19.25H46.75V2.75H27.5V8.25C27.5 8.61467 27.3551 8.96441 27.0973 9.22227C26.8394 9.48013 26.4897 9.625 26.125 9.625C25.7603 9.625 25.4106 9.48013 25.1527 9.22227C24.8949 8.96441 24.75 8.61467 24.75 8.25V1.375C24.75 1.01033 24.8949 0.660591 25.1527 0.402728C25.4106 0.144866 25.7603 0 26.125 0H48.125C48.4897 0 48.8394 0.144866 49.0973 0.402728C49.3551 0.660591 49.5 1.01033 49.5 1.375V20.625C49.5 20.9897 49.3551 21.3394 49.0973 21.5973C48.8394 21.8551 48.4897 22 48.125 22Z" fill="#707070"/>
<path d="M26.125 41.25H15.125C14.7603 41.25 14.4106 41.1051 14.1527 40.8473C13.8949 40.5894 13.75 40.2397 13.75 39.875C13.75 39.5103 13.8949 39.1606 14.1527 38.9027C14.4106 38.6449 14.7603 38.5 15.125 38.5H24.75V22H5.5V38.5H9.625C9.98967 38.5 10.3394 38.6449 10.5973 38.9027C10.8551 39.1606 11 39.5103 11 39.875C11 40.2397 10.8551 40.5894 10.5973 40.8473C10.3394 41.1051 9.98967 41.25 9.625 41.25H4.125C3.76033 41.25 3.41059 41.1051 3.15273 40.8473C2.89487 40.5894 2.75 40.2397 2.75 39.875V20.625C2.75 20.2603 2.89487 19.9106 3.15273 19.6527C3.41059 19.3949 3.76033 19.25 4.125 19.25H26.125C26.4897 19.25 26.8394 19.3949 27.0973 19.6527C27.3551 19.9106 27.5 20.2603 27.5 20.625V39.875C27.5 40.2397 27.3551 40.5894 27.0973 40.8473C26.8394 41.1051 26.4897 41.25 26.125 41.25ZM39.875 9.625H34.375C34.0103 9.625 33.6606 9.48013 33.4027 9.22227C33.1449 8.96441 33 8.61467 33 8.25V1.375C33 1.01033 33.1449 0.660591 33.4027 0.402728C33.6606 0.144866 34.0103 0 34.375 0H39.875C40.2397 0 40.5894 0.144866 40.8473 0.402728C41.1051 0.660591 41.25 1.01033 41.25 1.375V8.25C41.25 8.61467 41.1051 8.96441 40.8473 9.22227C40.5894 9.48013 40.2397 9.625 39.875 9.625ZM35.75 6.875H38.5V2.75H35.75V6.875ZM39.875 28.875H34.375C34.0103 28.875 33.6606 28.7301 33.4027 28.4723C33.1449 28.2144 33 27.8647 33 27.5V20.625C33 20.2603 33.1449 19.9106 33.4027 19.6527C33.6606 19.3949 34.0103 19.25 34.375 19.25H39.875C40.2397 19.25 40.5894 19.3949 40.8473 19.6527C41.1051 19.9106 41.25 20.2603 41.25 20.625V27.5C41.25 27.8647 41.1051 28.2144 40.8473 28.4723C40.5894 28.7301 40.2397 28.875 39.875 28.875ZM35.75 26.125H38.5V22H35.75V26.125Z" fill="#707070"/>
<path d="M17.875 28.875H12.375C12.0103 28.875 11.6606 28.7301 11.4027 28.4723C11.1449 28.2144 11 27.8647 11 27.5V20.625C11 20.2603 11.1449 19.9106 11.4027 19.6527C11.6606 19.3949 12.0103 19.25 12.375 19.25H17.875C18.2397 19.25 18.5894 19.3949 18.8473 19.6527C19.1051 19.9106 19.25 20.2603 19.25 20.625V27.5C19.25 27.8647 19.1051 28.2144 18.8473 28.4723C18.5894 28.7301 18.2397 28.875 17.875 28.875ZM13.75 26.125H16.5V22H13.75V26.125ZM59.125 39.875H56.375C56.0103 39.875 55.6606 39.7301 55.4027 39.4723C55.1449 39.2144 55 38.8647 55 38.5C55 38.1353 55.1449 37.7856 55.4027 37.5277C55.6606 37.2699 56.0103 37.125 56.375 37.125H59.125C59.4897 37.125 59.8394 37.2699 60.0973 37.5277C60.3551 37.7856 60.5 38.1353 60.5 38.5C60.5 38.8647 60.3551 39.2144 60.0973 39.4723C59.8394 39.7301 59.4897 39.875 59.125 39.875Z" fill="#707070"/>
</svg>

<svg width="86" height="66" fill="none" xmlns="http://www.w3.org/2000/svg"><path d="M83.875 56.375h-11A1.375 1.375 0 0171.5 55a8.25 8.25 0 00-1.004-3.96 1.375 1.375 0 112.379-1.306 11 11 0 011.293 3.891H82.5V33.33l-7.948-15.922a4.125 4.125 0 00-3.698-2.283H49.5v38.5h2.833a10.999 10.999 0 0116.197-8.25 1.392 1.392 0 01-1.375 2.42A8.25 8.25 0 0055 55a1.375 1.375 0 01-1.375 1.375h-5.5A1.375 1.375 0 0146.75 55V13.75a1.375 1.375 0 011.375-1.375h22.729A6.874 6.874 0 0177 16.17l8.099 16.211c.098.192.15.404.151.619v22a1.375 1.375 0 01-1.375 1.375z" fill="#707070"/><path d="M63.25 66a11 11 0 115.28-20.625 1.392 1.392 0 01-1.375 2.42 8.25 8.25 0 103.287 3.286 1.391 1.391 0 012.433-1.347A11 11 0 0163.25 66z" fill="#707070"/><path d="M63.25 60.5a5.5 5.5 0 110-11 5.5 5.5 0 010 11zm0-8.25a2.75 2.75 0 100 5.5 2.75 2.75 0 000-5.5zM17.875 66a11 11 0 110-22 11 11 0 010 22zm0-19.25a8.25 8.25 0 100 16.501 8.25 8.25 0 000-16.501z" fill="#707070"/><path d="M17.875 60.5a5.5 5.5 0 110-11 5.5 5.5 0 010 11zm0-8.25a2.75 2.75 0 100 5.5 2.75 2.75 0 000-5.5zm66-17.875h-27.5A1.375 1.375 0 0155 33V19.25a1.375 1.375 0 011.375-1.375H60.5a1.375 1.375 0 010 2.75h-2.75v11h23.897l-5.5-11H66a1.375 1.375 0 010-2.75h11a1.375 1.375 0 011.224.756l6.875 13.75a1.375 1.375 0 01-1.224 1.994zm0 15.125H82.5a5.5 5.5 0 010-11h1.375a1.375 1.375 0 011.375 1.375v8.25a1.375 1.375 0 01-1.375 1.375zM82.5 41.25a2.75 2.75 0 100 5.5v-5.5zM48.125 56.375h-5.5a1.375 1.375 0 010-2.75h4.125V41.25H15.125a1.375 1.375 0 010-2.75h33a1.375 1.375 0 011.375 1.375V55a1.375 1.375 0 01-1.375 1.375z" fill="#707070"/><path d="M30.25 56.375H27.5A1.375 1.375 0 0126.125 55a8.25 8.25 0 10-16.5 0 1.375 1.375 0 01-1.375 1.375H1.375A1.375 1.375 0 010 55V39.875A1.375 1.375 0 011.375 38.5h8.25a1.375 1.375 0 010 2.75H2.75v12.375h4.207a11 11 0 0121.835 0h1.458a1.375 1.375 0 010 2.75zm6.875 0H35.75a1.375 1.375 0 010-2.75h1.375a1.375 1.375 0 010 2.75zm11-15.125h-22a1.375 1.375 0 01-1.375-1.375v-19.25a1.375 1.375 0 011.375-1.375h22a1.375 1.375 0 011.375 1.375v19.25a1.375 1.375 0 01-1.375 1.375zM27.5 38.5h19.25V22H27.5v16.5z" fill="#707070"/><path d="M48.125 22h-22a1.375 1.375 0 01-1.375-1.375V13.75a1.375 1.375 0 012.75 0v5.5h19.25V2.75H27.5v5.5a1.375 1.375 0 01-2.75 0V1.375A1.375 1.375 0 0126.125 0h22A1.375 1.375 0 0149.5 1.375v19.25A1.375 1.375 0 0148.125 22z" fill="#707070"/><path d="M26.125 41.25h-11a1.375 1.375 0 010-2.75h9.625V22H5.5v16.5h4.125a1.375 1.375 0 010 2.75h-5.5a1.375 1.375 0 01-1.375-1.375v-19.25a1.375 1.375 0 011.375-1.375h22a1.375 1.375 0 011.375 1.375v19.25a1.375 1.375 0 01-1.375 1.375zm13.75-31.625h-5.5A1.375 1.375 0 0133 8.25V1.375A1.375 1.375 0 0134.375 0h5.5a1.375 1.375 0 011.375 1.375V8.25a1.375 1.375 0 01-1.375 1.375zm-4.125-2.75h2.75V2.75h-2.75v4.125zm4.125 22h-5.5A1.375 1.375 0 0133 27.5v-6.875a1.375 1.375 0 011.375-1.375h5.5a1.375 1.375 0 011.375 1.375V27.5a1.375 1.375 0 01-1.375 1.375zm-4.125-2.75h2.75V22h-2.75v4.125z" fill="#707070"/><path d="M17.875 28.875h-5.5A1.375 1.375 0 0111 27.5v-6.875a1.375 1.375 0 011.375-1.375h5.5a1.375 1.375 0 011.375 1.375V27.5a1.375 1.375 0 01-1.375 1.375zm-4.125-2.75h2.75V22h-2.75v4.125zm45.375 13.75h-2.75a1.375 1.375 0 010-2.75h2.75a1.375 1.375 0 010 2.75z" fill="#707070"/></svg>
